assets/img/iconbar.svg

<svg fill="none" height="32" viewBox="0 0 268 32" width="268" xmlns="http://www.w3.org/2000/svg"><g fill="#d9d1b8"><path d="m267.086 25.6636-1.272-.6359v-.8785c0-.482-.396-.8786-.878-.8786h-12.3c-.482 0-.879.3966-.879.8786v.8785l-1.271.6359c-.297.1485-.486.4534-.486.7858v1.214c0 .482.397.8786.879.8786h15.814c.482 0 .878-.3966.878-.8786v-1.214c0-.3322-.188-.6372-.485-.7858zm-13.143-13.687-.795 9.5368h11.275l-.795-9.5379 1.682-1.7083c.323-.32866.504-.77173.504-1.23277v-4.65313c0-.241-.198-.43928-.439-.43928h-1.932c-.241 0-.439.19828-.439.43928v2.19643h-1.809v-2.19643c0-.241-.198-.43928-.439-.43928h-3.94c-.241 0-.439.19828-.439.43928v2.19643h-1.809v-2.19643c0-.241-.198-.43928-.439-.43928h-1.933c-.241 0-.439.19828-.439.43928v4.65753c0 .46158.182.90509.506 1.23387zm3.547 1.1679c0-.7106.585-1.2953 1.296-1.2953.71 0 1.295.5847 1.295 1.2953v2.5907h-2.591z"/><path d="m59.1062 25.5783-6.7349-2.1499 6.7349-2.1498c.3974-.127.6188-.5586.4946-.9643l-.4499-1.4699c-.1241-.4056-.5471-.6318-.944-.5052l-10.8892 3.4759-10.8893-3.4759c-.3974-.1266-.8199.0996-.944.5052l-.4499 1.4699c-.1241.4057.0972.8378.4946.9643l6.7349 2.1498-6.7349 2.1499c-.3974.1265-.6187.5586-.4946.9642l.4499 1.47c.1241.4056.5471.6318.944.5052l10.8893-3.4759 10.8892 3.4759c.3974.1266.8199-.0996.944-.5052l.4499-1.47c.1242-.4056-.0972-.8372-.4946-.9642zm-11.7885-6.2633c3.8267 0 6.9287-3.1021 6.9287-6.9288 0-1.6018-1.608-4.90594-3.8493-6.92875-.6433.58028-1.2245 1.19088-1.7389 1.8034-.843-1.12929-1.8886-2.27446-3.0727-3.34313-3.0395 2.74168-5.1966 6.31388-5.1966 8.46848 0 3.8267 3.1021 6.9288 6.9288 6.9288zm-1.7082-10.94747c.2036.24491 2.9072 3.85217 2.9072 3.85217l1.7245-2.0555c.1218.2103.2324.4162.3315.614.8041 1.6037.4648 3.6563-.9835 4.7149-.637.4662-1.4228.7424-2.2715.7424-2.1225 0-3.8493-1.467-3.8493-3.8493 0-1.1865.715-2.2321 2.1411-4.01867z"/><path d="m95.6547 17.8184c-.023.8386-.7322 1.4964-1.5711 1.4964h-2.6625v.7698c0 1.052-.2349 2.049-.6544 2.9421l2.8979 2.8979c.6013.6013.6013 1.5762 0 2.1775s-1.5762.6012-2.1775 0l-2.6337-2.6337c-1.1908.9658-2.7082 1.5449-4.361 1.5449v-11.7402c0-.3189-.2585-.5774-.5774-.5774h-1.1548c-.3188 0-.5773.2585-.5773.5774v11.7402c-1.6529 0-3.1702-.5791-4.3611-1.5449l-2.6336 2.6337c-.6014.6013-1.5763.6012-2.1776 0-.6012-.6013-.6012-1.5762 0-2.1775l2.898-2.8979c-.4195-.8931-.6544-1.8901-.6544-2.9421v-.7698h-2.6625c-.8389 0-1.5481-.6578-1.5711-1.4964-.0239-.8701.6744-1.583 1.5391-1.583h2.6945v-2.8266l-2.2436-2.2435c-.6012-.6013-.6012-1.57621 0-2.17752.6014-.6013 1.5762-.6013 2.1776 0l2.6284 2.62852h11.042l2.6285-2.62847c.6013-.6013 1.5761-.6013 2.1775 0 .6012.6013.6012 1.57617 0 2.17747l-2.2435 2.2435v2.8266h2.6945c.8647 0 1.563.7129 1.5391 1.583zm-12.2689-13.90068c-2.9763 0-5.389 2.41272-5.389 5.38897h10.7779c0-2.97625-2.4127-5.38897-5.3889-5.38897z"/><path d="m129.768 10.7553-2.218 2.2182c-.227.2262-.592.2262-.818 0l-5.341-5.34104c-.227-.22615-.227-.59184 0-.818l2.218-2.21822c.9-.8998 2.362-.8998 3.267 0l2.892 2.89187c.904.8998.904 2.36258 0 3.26719zm-10.283-2.03538-12.636 12.63568-1.02 5.8463c-.139.7892.549 1.4724 1.338 1.3377l5.846-1.0249 12.636-12.6357c.226-.2262.226-.5919 0-.818l-5.341-5.34108c-.231-.22615-.597-.22615-.823 0zm-7.704 11.55308c-.264-.2647-.264-.6881 0-.9527l7.411-7.4102c.264-.2646.688-.2646.952 0 .265.2647.265.6881 0 .9528l-7.41 7.4101c-.264.2646-.688.2646-.953 0zm-1.737 4.0467h2.31v1.7467l-3.104.5437-1.496-1.4965.544-3.1036h1.746z"/><path d="m219.634 16.2618 2.082.9256c.404.1796.864.1884 1.275.0241l.655-.2624c.463-.1854.818-.5726.961-1.0506l.473-1.5708c.087-.3483.322-.6415.643-.8021l1.134-.5679v2.5795c0 .9304-.528 1.7845-1.36 2.2006l-2.932 1.4683c-1.387.694-2.265 2.1172-2.265 3.6675v.7441h16.393v-9.84c0-5.43246-4.404-9.83996-9.836-9.83996h-7.582c-.337 0-.615.27763-.615.615 0 .13484.031.26789.092.38848l.728 1.45652-.461.46125c-.231.23119-.36.54484-.359.87125v7.03206c0 .6471.382 1.2366.974 1.4995zm1.691-7.40406c.562 0 1.025.46269 1.025 1.025 0 .56236-.463 1.02496-1.025 1.02496s-1.025-.4626-1.025-1.02496c0-.56231.463-1.025 1.025-1.025zm16.195 16.39996h-18.04c-.45 0-.82.3702-.82.82v1.64c0 .4499.37.82.82.82h18.04c.45 0 .82-.3701.82-.82v-1.64c0-.4498-.37-.82-.82-.82z"/><path d="m23.0057 23.3247-5.6311-9.0569v-7.25505h.3843c.6391 0 1.1532-.51411 1.1532-1.15313v-.76875c0-.63902-.5141-1.15313-1.1532-1.15313h-9.99372c-.63903 0-1.15313.51411-1.15313 1.15313v.76875c0 .63902.5141 1.15313 1.15313 1.15313h.38437v7.25505l-5.63109 9.0569c-1.40778 2.263.21621 5.2131 2.88761 5.2131h14.71193c2.6762 0 4.2954-2.9549 2.8877-5.2131zm-14.38048-4.0119 2.31588-3.7285c.1778-.2498.2786-.5573.2786-.884v-7.68755h3.0751v7.68755c0 .3315.1057.6342.2786.884l2.3159 3.7285z"/><path d="m145.956 22.0504h8.643c2.386 0 4.322-1.9357 4.322-4.3216h1.44c3.178 0 5.762-2.5839 5.762-5.7621 0-3.17816-2.584-5.76211-5.762-5.76211h-17.646c-.599 0-1.081.48168-1.081 1.0804v10.44381c0 2.3859 1.936 4.3216 4.322 4.3216zm14.405-12.96475c1.589 0 2.881 1.29195 2.881 2.88105s-1.292 2.8811-2.881 2.8811h-1.44v-5.76215zm2.147 17.28635h-23.021c-2.143 0-2.746-2.8811-1.621-2.8811h26.259c1.125 0 .531 2.8811-1.617 2.8811z"/><path d="m206.425 9.80228h-1.701c-.111 0-.222.02217-.325.06524s-.197.10621-.276.18578c-.079.0796-.142.1741-.184.2781-.043.104-.065.2155-.065.328v4.2857h-1.701v-2.5714c0-.1126-.022-.224-.065-.328s-.105-.1985-.184-.2781-.173-.1427-.276-.1858-.214-.0652-.326-.0652h-2.551v-3.4286h2.551c.226-.00002.442-.09033.602-.25107.159-.16074.249-.37875.249-.60608v-1.71428c0-.11257-.022-.22403-.065-.32802-.043-.104-.105-.19849-.184-.27808-.079-.0796-.173-.14273-.276-.18581-.103-.04307-.214-.06524-.326-.06524h-1.701c-.111 0-.222.02217-.325.06524-.103.04308-.197.10621-.276.18581-.079.07959-.142.17408-.184.27808-.043.10399-.065.21545-.065.32802v.85714h-2.552c-.111 0-.222.02216-.325.06524-.103.04307-.197.10621-.276.1858-.079.0796-.142.17409-.184.27808-.043.104-.065.21546-.065.32802v2.57143h-6.804v-2.57143c0-.11256-.022-.22402-.065-.32802-.043-.10399-.105-.19848-.184-.27808-.079-.07959-.173-.14273-.276-.1858-.103-.04308-.214-.06524-.326-.06524h-2.551v-.85714c0-.11257-.022-.22403-.065-.32802-.043-.104-.105-.19849-.184-.27808-.079-.0796-.173-.14273-.276-.18581-.103-.04307-.214-.06524-.326-.06524h-1.701c-.111 0-.222.02217-.325.06524-.103.04308-.197.10621-.276.18581-.079.07959-.142.17408-.184.27808-.043.10399-.065.21545-.065.32802v1.71428c0 .22733.09.44534.249.60608.16.16074.376.25105.601.25107h2.552v3.4286h-2.552c-.111 0-.222.0221-.325.0652s-.197.1062-.276.1858-.142.1741-.184.2781c-.043.104-.065.2154-.065.328v2.5714h-1.701v-4.2857c0-.1125-.022-.224-.065-.328s-.105-.1985-.184-.2781c-.079-.07957-.173-.14271-.276-.18578s-.214-.06524-.326-.06524h-1.701c-.111 0-.222.02217-.325.06524s-.197.10621-.276.18578c-.079.0796-.142.1741-.184.2781-.043.104-.065.2155-.065.328v6.8572c0 .2273.09.4453.249.606.16.1608.376.2511.601.2511h2.552v4.2857c0 .2273.09.4454.249.6061.16.1607.376.2511.601.2511h2.552v4.2857c0 .2273.09.4453.249.6061.16.1607.376.251.601.251h5.103c.226 0 .442-.0903.602-.251.159-.1608.249-.3788.249-.6061v-1.7143c0-.1126-.022-.224-.065-.328s-.105-.1985-.184-.2781-.173-.1427-.276-.1858-.214-.0653-.326-.0652h-2.551v-1.7143h10.206v1.7143h-2.552c-.111-.0001-.222.0221-.325.0652s-.197.1062-.276.1858-.142.1741-.184.2781c-.043.104-.065.2154-.065.328v1.7143c0 .2273.09.4453.249.6061.16.1607.376.251.601.251h5.103c.226 0 .442-.0903.602-.251.159-.1608.249-.3788.249-.6061v-4.2857h2.551c.226 0 .442-.0904.602-.2511.159-.1607.249-.3788.249-.6061v-4.2857h2.551c.226 0 .442-.0903.602-.2511.159-.1607.249-.3787.249-.606v-6.8572c0-.1125-.022-.224-.065-.328s-.105-.1985-.184-.2781c-.079-.07957-.173-.14271-.276-.18578s-.214-.06524-.326-.06524zm-17.86 10.28572h-3.402v-5.1429h3.402zm10.206 0h-3.402v-5.1429h3.402z"/></g></svg>

<svg width="268" height="32" viewBox="0 0 268 32" fill="none" xmlns="http://www.w3.org/2000/svg">
<path d="M267.086 25.6636L265.814 25.0277V24.1492C265.814 23.6672 265.418 23.2706 264.936 23.2706H252.636C252.154 23.2706 251.757 23.6672 251.757 24.1492V25.0277L250.486 25.6636C250.189 25.8121 250 26.117 250 26.4494V27.6634C250 28.1454 250.397 28.542 250.879 28.542H266.693C267.175 28.542 267.571 28.1454 267.571 27.6634V26.4494C267.571 26.1172 267.383 25.8122 267.086 25.6636ZM253.943 11.9766L253.148 21.5134H264.423L263.628 11.9755L265.31 10.2672C265.633 9.93854 265.814 9.49547 265.814 9.03443V4.3813C265.814 4.1403 265.616 3.94202 265.375 3.94202H263.443C263.202 3.94202 263.004 4.1403 263.004 4.3813V6.57773H261.195V4.3813C261.195 4.1403 260.997 3.94202 260.756 3.94202H256.816C256.575 3.94202 256.377 4.1403 256.377 4.3813V6.57773H254.568V4.3813C254.568 4.1403 254.37 3.94202 254.129 3.94202H252.196C251.955 3.94202 251.757 4.1403 251.757 4.3813V9.03883C251.757 9.50041 251.939 9.94392 252.263 10.2727L253.943 11.9766ZM257.49 13.1445C257.49 12.4339 258.075 11.8492 258.786 11.8492C259.496 11.8492 260.081 12.4339 260.081 13.1445V15.7352H257.49V13.1445Z" fill="#D9D1B8"/>
<path d="M59.1062 25.5783L52.3713 23.4284L59.1062 21.2786C59.5036 21.1516 59.725 20.72 59.6008 20.3143L59.1509 18.8444C59.0268 18.4388 58.6038 18.2126 58.2069 18.3392L47.3177 21.8151L36.4284 18.3392C36.031 18.2126 35.6085 18.4388 35.4844 18.8444L35.0345 20.3143C34.9104 20.72 35.1317 21.1521 35.5291 21.2786L42.264 23.4284L35.5291 25.5783C35.1317 25.7048 34.9104 26.1369 35.0345 26.5425L35.4844 28.0125C35.6085 28.4181 36.0315 28.6443 36.4284 28.5177L47.3177 25.0418L58.2069 28.5177C58.6043 28.6443 59.0268 28.4181 59.1509 28.0125L59.6008 26.5425C59.725 26.1369 59.5036 25.7053 59.1062 25.5783ZM47.3177 19.315C51.1444 19.315 54.2464 16.2129 54.2464 12.3862C54.2464 10.7844 52.6384 7.48026 50.3971 5.45745C49.7538 6.03773 49.1726 6.64833 48.6582 7.26085C47.8152 6.13156 46.7696 4.98639 45.5855 3.91772C42.546 6.6594 40.3889 10.2316 40.3889 12.3862C40.3889 16.2129 43.491 19.315 47.3177 19.315ZM45.6095 8.36753C45.8131 8.61244 48.5167 12.2197 48.5167 12.2197L50.2412 10.1642C50.363 10.3745 50.4736 10.5804 50.5727 10.7782C51.3768 12.3819 51.0375 14.4345 49.5892 15.4931C48.9522 15.9593 48.1664 16.2355 47.3177 16.2355C45.1952 16.2355 43.4684 14.7685 43.4684 12.3862C43.4684 11.1997 44.1834 10.1541 45.6095 8.36753Z" fill="#D9D1B8"/>
<path d="M95.6547 17.8184C95.6317 18.657 94.9225 19.3148 94.0836 19.3148H91.4211V20.0846C91.4211 21.1366 91.1862 22.1336 90.7667 23.0267L93.6646 25.9246C94.2659 26.5259 94.2659 27.5008 93.6646 28.1021C93.0633 28.7034 92.0884 28.7033 91.4871 28.1021L88.8534 25.4684C87.6626 26.4342 86.1452 27.0133 84.4924 27.0133V15.2731C84.4924 14.9542 84.2339 14.6957 83.915 14.6957H82.7602C82.4414 14.6957 82.1829 14.9542 82.1829 15.2731V27.0133C80.53 27.0133 79.0127 26.4342 77.8218 25.4684L75.1882 28.1021C74.5868 28.7034 73.6119 28.7033 73.0106 28.1021C72.4094 27.5008 72.4094 26.5259 73.0106 25.9246L75.9086 23.0267C75.4891 22.1336 75.2542 21.1366 75.2542 20.0846V19.3148H72.5917C71.7528 19.3148 71.0436 18.657 71.0206 17.8184C70.9967 16.9483 71.695 16.2354 72.5597 16.2354H75.2542V13.4088L73.0106 11.1653C72.4094 10.564 72.4094 9.58909 73.0106 8.98778C73.612 8.38648 74.5868 8.38648 75.1882 8.98778L77.8166 11.6163H88.8586L91.4871 8.98783C92.0884 8.38653 93.0632 8.38653 93.6646 8.98783C94.2658 9.58913 94.2658 10.564 93.6646 11.1653L91.4211 13.4088V16.2354H94.1156C94.9803 16.2354 95.6786 16.9483 95.6547 17.8184ZM83.3858 3.91772C80.4095 3.91772 77.9968 6.33044 77.9968 9.30669H88.7747C88.7747 6.33044 86.362 3.91772 83.3858 3.91772Z" fill="#D9D1B8"/>
<path d="M129.768 10.7553L127.55 12.9735C127.323 13.1997 126.958 13.1997 126.732 12.9735L121.391 7.63246C121.164 7.40631 121.164 7.04062 121.391 6.81446L123.609 4.59624C124.509 3.69644 125.971 3.69644 126.876 4.59624L129.768 7.48811C130.672 8.38791 130.672 9.85069 129.768 10.7553ZM119.485 8.71992L106.849 21.3556L105.829 27.2019C105.69 27.9911 106.378 28.6743 107.167 28.5396L113.013 27.5147L125.649 14.879C125.875 14.6528 125.875 14.2871 125.649 14.061L120.308 8.71992C120.077 8.49377 119.711 8.49377 119.485 8.71992ZM111.781 20.273C111.517 20.0083 111.517 19.5849 111.781 19.3203L119.192 11.9101C119.456 11.6455 119.88 11.6455 120.144 11.9101C120.409 12.1748 120.409 12.5982 120.144 12.8629L112.734 20.273C112.47 20.5376 112.046 20.5376 111.781 20.273ZM110.044 24.3197H112.354V26.0664L109.25 26.6101L107.754 25.1136L108.298 22.01H110.044V24.3197Z" fill="#D9D1B8"/>
<path d="M219.634 16.2618L221.716 17.1874C222.12 17.367 222.58 17.3758 222.991 17.2115L223.646 16.9491C224.109 16.7637 224.464 16.3765 224.607 15.8985L225.08 14.3277C225.167 13.9794 225.402 13.6862 225.723 13.5256L226.857 12.9577V15.5372C226.857 16.4676 226.329 17.3217 225.497 17.7378L222.565 19.2061C221.178 19.9001 220.3 21.3233 220.3 22.8736V23.6177H236.693V13.7777C236.693 8.34524 232.289 3.93774 226.857 3.93774H219.275C218.938 3.93774 218.66 4.21537 218.66 4.55274C218.66 4.68758 218.691 4.82063 218.752 4.94122L219.48 6.39774L219.019 6.85899C218.788 7.09018 218.659 7.40383 218.66 7.73024V14.7623C218.66 15.4094 219.042 15.9989 219.634 16.2618ZM221.325 8.85774C221.887 8.85774 222.35 9.32043 222.35 9.88274C222.35 10.4451 221.887 10.9077 221.325 10.9077C220.763 10.9077 220.3 10.4451 220.3 9.88274C220.3 9.32043 220.763 8.85774 221.325 8.85774ZM237.52 25.2577H219.48C219.03 25.2577 218.66 25.6279 218.66 26.0777V27.7177C218.66 28.1676 219.03 28.5377 219.48 28.5377H237.52C237.97 28.5377 238.34 28.1676 238.34 27.7177V26.0777C238.34 25.6279 237.97 25.2577 237.52 25.2577Z" fill="#D9D1B8"/>
<path d="M23.0057 23.3247L17.3746 14.2678V7.01275H17.7589C18.398 7.01275 18.9121 6.49864 18.9121 5.85962V5.09087C18.9121 4.45185 18.398 3.93774 17.7589 3.93774H7.76518C7.12615 3.93774 6.61205 4.45185 6.61205 5.09087V5.85962C6.61205 6.49864 7.12615 7.01275 7.76518 7.01275H8.14955V14.2678L2.51846 23.3247C1.11068 25.5877 2.73467 28.5378 5.40607 28.5378H20.118C22.7942 28.5378 24.4134 25.5829 23.0057 23.3247ZM8.62522 19.3128L10.9411 15.5843C11.1189 15.3345 11.2197 15.027 11.2197 14.7003V7.01275H14.2948V14.7003C14.2948 15.0318 14.4005 15.3345 14.5734 15.5843L16.8893 19.3128H8.62522Z" fill="#D9D1B8"/>
<path d="M145.956 22.0504H154.599C156.985 22.0504 158.921 20.1147 158.921 17.7288H160.361C163.539 17.7288 166.123 15.1449 166.123 11.9667C166.123 8.78854 163.539 6.20459 160.361 6.20459H142.715C142.116 6.20459 141.634 6.68627 141.634 7.28499V17.7288C141.634 20.1147 143.57 22.0504 145.956 22.0504ZM160.361 9.08565C161.95 9.08565 163.242 10.3776 163.242 11.9667C163.242 13.5558 161.95 14.8478 160.361 14.8478H158.921V9.08565H160.361ZM162.508 26.372H139.487C137.344 26.372 136.741 23.4909 137.866 23.4909H164.125C165.25 23.4909 164.656 26.372 162.508 26.372Z" fill="#D9D1B8"/>
<path d="M206.425 9.80228H204.724C204.613 9.80228 204.502 9.82445 204.399 9.86752C204.296 9.91059 204.202 9.97373 204.123 10.0533C204.044 10.1329 203.981 10.2274 203.939 10.3314C203.896 10.4354 203.874 10.5469 203.874 10.6594V14.9451H202.173V12.3737C202.173 12.2611 202.151 12.1497 202.108 12.0457C202.065 11.9417 202.003 11.8472 201.924 11.7676C201.845 11.688 201.751 11.6249 201.648 11.5818C201.545 11.5387 201.434 11.5166 201.322 11.5166H198.771V8.088H201.322C201.548 8.08798 201.764 7.99767 201.924 7.83693C202.083 7.67619 202.173 7.45818 202.173 7.23085V5.51657C202.173 5.404 202.151 5.29254 202.108 5.18855C202.065 5.08455 202.003 4.99006 201.924 4.91047C201.845 4.83087 201.751 4.76774 201.648 4.72466C201.545 4.68159 201.434 4.65942 201.322 4.65942H199.621C199.51 4.65942 199.399 4.68159 199.296 4.72466C199.193 4.76774 199.099 4.83087 199.02 4.91047C198.941 4.99006 198.878 5.08455 198.836 5.18855C198.793 5.29254 198.771 5.404 198.771 5.51657V6.37371H196.219C196.108 6.37371 195.997 6.39587 195.894 6.43895C195.791 6.48202 195.697 6.54516 195.618 6.62475C195.539 6.70435 195.476 6.79884 195.434 6.90283C195.391 7.00683 195.369 7.11829 195.369 7.23085V9.80228H188.565V7.23085C188.565 7.11829 188.543 7.00683 188.5 6.90283C188.457 6.79884 188.395 6.70435 188.316 6.62475C188.237 6.54516 188.143 6.48202 188.04 6.43895C187.937 6.39587 187.826 6.37371 187.714 6.37371H185.163V5.51657C185.163 5.404 185.141 5.29254 185.098 5.18855C185.055 5.08455 184.993 4.99006 184.914 4.91047C184.835 4.83087 184.741 4.76774 184.638 4.72466C184.535 4.68159 184.424 4.65942 184.312 4.65942H182.611C182.5 4.65942 182.389 4.68159 182.286 4.72466C182.183 4.76774 182.089 4.83087 182.01 4.91047C181.931 4.99006 181.868 5.08455 181.826 5.18855C181.783 5.29254 181.761 5.404 181.761 5.51657V7.23085C181.761 7.45818 181.851 7.67619 182.01 7.83693C182.17 7.99767 182.386 8.08798 182.611 8.088H185.163V11.5166H182.611C182.5 11.5166 182.389 11.5387 182.286 11.5818C182.183 11.6249 182.089 11.688 182.01 11.7676C181.931 11.8472 181.868 11.9417 181.826 12.0457C181.783 12.1497 181.761 12.2611 181.761 12.3737V14.9451H180.06V10.6594C180.06 10.5469 180.038 10.4354 179.995 10.3314C179.952 10.2274 179.89 10.1329 179.811 10.0533C179.732 9.97373 179.638 9.91059 179.535 9.86752C179.432 9.82445 179.321 9.80228 179.209 9.80228H177.508C177.397 9.80228 177.286 9.82445 177.183 9.86752C177.08 9.91059 176.986 9.97373 176.907 10.0533C176.828 10.1329 176.765 10.2274 176.723 10.3314C176.68 10.4354 176.658 10.5469 176.658 10.6594V17.5166C176.658 17.7439 176.748 17.9619 176.907 18.1226C177.067 18.2834 177.283 18.3737 177.508 18.3737H180.06V22.6594C180.06 22.8867 180.15 23.1048 180.309 23.2655C180.469 23.4262 180.685 23.5166 180.91 23.5166H183.462V27.8023C183.462 28.0296 183.552 28.2476 183.711 28.4084C183.871 28.5691 184.087 28.6594 184.312 28.6594H189.415C189.641 28.6594 189.857 28.5691 190.017 28.4084C190.176 28.2476 190.266 28.0296 190.266 27.8023V26.088C190.266 25.9754 190.244 25.864 190.201 25.76C190.158 25.656 190.096 25.5615 190.017 25.4819C189.938 25.4023 189.844 25.3392 189.741 25.2961C189.638 25.253 189.527 25.2308 189.415 25.2309H186.864V23.5166H197.07V25.2309H194.518C194.407 25.2308 194.296 25.253 194.193 25.2961C194.09 25.3392 193.996 25.4023 193.917 25.4819C193.838 25.5615 193.775 25.656 193.733 25.76C193.69 25.864 193.668 25.9754 193.668 26.088V27.8023C193.668 28.0296 193.758 28.2476 193.917 28.4084C194.077 28.5691 194.293 28.6594 194.518 28.6594H199.621C199.847 28.6594 200.063 28.5691 200.223 28.4084C200.382 28.2476 200.472 28.0296 200.472 27.8023V23.5166H203.023C203.249 23.5166 203.465 23.4262 203.625 23.2655C203.784 23.1048 203.874 22.8867 203.874 22.6594V18.3737H206.425C206.651 18.3737 206.867 18.2834 207.027 18.1226C207.186 17.9619 207.276 17.7439 207.276 17.5166V10.6594C207.276 10.5469 207.254 10.4354 207.211 10.3314C207.168 10.2274 207.106 10.1329 207.027 10.0533C206.948 9.97373 206.854 9.91059 206.751 9.86752C206.648 9.82445 206.537 9.80228 206.425 9.80228ZM188.565 20.088H185.163V14.9451H188.565V20.088ZM198.771 20.088H195.369V14.9451H198.771V20.088Z" fill="#D9D1B8"/>
</svg>
